assets/img/braze_icons/file-attachment-03.svg

<svg fill="none" height="24" viewBox="0 0 24 24" width="24" xmlns="http://www.w3.org/2000/svg"><g fill="#801ed7"><path clip-rule="evenodd" d="m20.5 13c-.2761 0-.5.2239-.5.5v5.5c0 .5523-.4477 1-1 1s-1-.4477-1-1v-5.5c0-1.3807 1.1193-2.5 2.5-2.5s2.5 1.1193 2.5 2.5v5.5c0 2.2091-1.7909 4-4 4s-4-1.7909-4-4v-4c0-.5523.4477-1 1-1s1 .4477 1 1v4c0 1.1046.8954 2 2 2s2-.8954 2-2v-5.5c0-.2761-.2239-.5-.5-.5z" fill-rule="evenodd"/><path d="m8.7587 1h6.4826c.805-.000012 1.4693-.000022 2.0105.04419.5621.04593 1.0788.14449 1.5642.39179.7526.38349 1.3645.99541 1.748 1.74806.2473.48533.3459 1.00204.3918 1.56414.0442.54119.0442 1.20554.0442 2.0105v1.76778c0 .26731-.2327.47354-.5.47354-1.9632 0-3.6328 1.2572-4.2476 3.0105-.0832-.007-.1674-.0105-.2524-.0105-1.6569 0-3 1.3431-3 3v4c0 .8961.1964 1.7463.5486 2.5099.2833.6142.4249.9214.3989 1.0741-.0262.1539-.0814.2401-.2102.3284-.1278.0876-.4183.0876-.9992.0876h-3.97942c-.80496 0-1.46931 0-2.0105-.0442-.5621-.0459-1.07881-.1445-1.56414-.3918-.75265-.3835-1.36457-.9954-1.74806-1.748-.2473-.4854-.34586-1.0021-.39179-1.5642-.04421-.5412-.0442-1.2055-.04419-2.0105v-10.4826c-.00001-.80496-.00002-1.46933.04419-2.01052.04593-.5621.14449-1.07881.39179-1.56414.38349-.75265.99541-1.36457 1.74806-1.74806.48533-.2473 1.00204-.34586 1.56414-.39179.54119-.044212 1.20556-.044202 2.01052-.04419z"/></g></svg>

<svg width="24" height="24" viewBox="0 0 24 24" fill="none" xmlns="http://www.w3.org/2000/svg">
<path fill-rule="evenodd" clip-rule="evenodd" d="M20.5 13C20.2239 13 20 13.2239 20 13.5V19C20 19.5523 19.5523 20 19 20C18.4477 20 18 19.5523 18 19V13.5C18 12.1193 19.1193 11 20.5 11C21.8807 11 23 12.1193 23 13.5V19C23 21.2091 21.2091 23 19 23C16.7909 23 15 21.2091 15 19V15C15 14.4477 15.4477 14 16 14C16.5523 14 17 14.4477 17 15V19C17 20.1046 17.8954 21 19 21C20.1046 21 21 20.1046 21 19V13.5C21 13.2239 20.7761 13 20.5 13Z" fill="#801ED7"/>
<path d="M8.7587 1H15.2413C16.0463 0.999988 16.7106 0.999978 17.2518 1.04419C17.8139 1.09012 18.3306 1.18868 18.816 1.43598C19.5686 1.81947 20.1805 2.43139 20.564 3.18404C20.8113 3.66937 20.9099 4.18608 20.9558 4.74818C21 5.28937 21 5.95372 21 6.75868V8.52646C21 8.79377 20.7673 9 20.5 9C18.5368 9 16.8672 10.2572 16.2524 12.0105C16.1692 12.0035 16.085 12 16 12C14.3431 12 13 13.3431 13 15V19C13 19.8961 13.1964 20.7463 13.5486 21.5099C13.8319 22.1241 13.9735 22.4313 13.9475 22.584C13.9213 22.7379 13.8661 22.8241 13.7373 22.9124C13.6095 23 13.319 23 12.7381 23H8.75868C7.95372 23 7.28937 23 6.74818 22.9558C6.18608 22.9099 5.66937 22.8113 5.18404 22.564C4.43139 22.1805 3.81947 21.5686 3.43598 20.816C3.18868 20.3306 3.09012 19.8139 3.04419 19.2518C2.99998 18.7106 2.99999 18.0463 3 17.2413V6.7587C2.99999 5.95374 2.99998 5.28937 3.04419 4.74818C3.09012 4.18608 3.18868 3.66937 3.43598 3.18404C3.81947 2.43139 4.43139 1.81947 5.18404 1.43598C5.66937 1.18868 6.18608 1.09012 6.74818 1.04419C7.28937 0.999978 7.95374 0.999988 8.7587 1Z" fill="#801ED7"/>
</svg>
